svg/building/campground_fill.svg

<?xml version="1.0" encoding="UTF-8"?>
<svg width="24px" height="24px" viewBox="0 0 24 24" version="1.1" xmlns="http://www.w3.org/2000/svg" xmlns:xlink="http://www.w3.org/1999/xlink">
    <title>campground_fill</title>
    <g id="页面-1" stroke="none" stroke-width="1" fill="none" fill-rule="evenodd">
        <g id="Building" transform="translate(-576.000000, -48.000000)" fill-rule="nonzero">
            <g id="campground_fill" transform="translate(576.000000, 48.000000)">
                 <path d="M24,0 L24,24 L0,24 L0,0 L24,0 Z M12.5934901,23.257841 L12.5819402,23.2595131 L12.5108777,23.2950439 L12.4918791,23.2987469 L12.4918791,23.2987469 L12.4767152,23.2950439 L12.4056548,23.2595131 C12.3958229,23.2563662 12.3870493,23.2590235 12.3821421,23.2649074 L12.3780323,23.275831 L12.360941,23.7031097 L12.3658947,23.7234994 L12.3769048,23.7357139 L12.4804777,23.8096931 L12.4953491,23.8136134 L12.4953491,23.8136134 L12.5071152,23.8096931 L12.6106902,23.7357139 L12.6232938,23.7196733 L12.6232938,23.7196733 L12.6266527,23.7031097 L12.609561,23.275831 C12.6075724,23.2657013 12.6010112,23.2592993 12.5934901,23.257841 L12.5934901,23.257841 Z M12.8583906,23.1452862 L12.8445485,23.1473072 L12.6598443,23.2396597 L12.6498822,23.2499052 L12.6498822,23.2499052 L12.6471943,23.2611114 L12.6650943,23.6906389 L12.6699349,23.7034178 L12.6699349,23.7034178 L12.678386,23.7104931 L12.8793402,23.8032389 C12.8914285,23.8068999 12.9022333,23.8029875 12.9078286,23.7952264 L12.9118235,23.7811639 L12.8776777,23.1665331 C12.8752882,23.1545897 12.8674102,23.1470016 12.8583906,23.1452862 L12.8583906,23.1452862 Z M12.1430473,23.1473072 C12.1332178,23.1423925 12.1221763,23.1452606 12.1156365,23.1525954 L12.1099173,23.1665331 L12.0757714,23.7811639 C12.0751323,23.7926639 12.0828099,23.8018602 12.0926481,23.8045676 L12.108256,23.8032389 L12.3092106,23.7104931 L12.3186497,23.7024347 L12.3186497,23.7024347 L12.3225043,23.6906389 L12.340401,23.2611114 L12.337245,23.2485176 L12.337245,23.2485176 L12.3277531,23.2396597 L12.1430473,23.1473072 Z" id="MingCute" fill-rule="nonzero"></path>
                <path d="M13.176,3.43356 C13.4888,2.97846 14.1114,2.86317 14.5665,3.17605 C15.0216,3.48894 15.1369,4.11152 14.824,4.56662 L14.824,4.56662 L13.2135,6.90918 L21.526,19.0001 L22,19.0001 C22.5523,19.0001 23,19.4478 23,20.0001 C23,20.5524 22.5523,21.000175 22,21.000175 L22,21.000175 L17.3661,21.000175 L17.3661,21.000175 L17.3222,20.9309 L12.8304,14.4428 C12.4288,13.8627 11.5713,13.8626 11.1696,14.4428 L11.1696,14.4428 L6.67781,20.9309 L6.67781,20.9309 L6.63393,21.000175 L2,21.000175 C1.44772,21.000175 1,20.5524 1,20.0001 C1,19.4478 1.44772,19.0001 2,19.0001 L2,19.0001 L2.47397,19.0001 L10.7865,6.90918 L9.17596,4.56662 C8.86307,4.11152 8.97837,3.48894 9.43347,3.17605 C9.88858,2.86317 10.5112,2.97846 10.824,3.43357 L10.824,3.43357 L12,5.14405 Z M12,16.7569 L14.9376,21.0001 L9.06244,21.0001 L12,16.7569 Z" id="形状结合" fill="#09244B"></path>
            </g>
        </g>
    </g>
</svg>

<svg xmlns="http://www.w3.org/2000/svg" width="24" height="24"><g fill="none" fill-rule="nonzero"><path d="M24 0v24H0V0h24ZM12.593 23.258l-.011.002-.071.035-.02.004-.014-.004-.071-.035c-.01-.004-.019-.001-.024.005l-.004.01-.017.428.005.02.01.013.104.074.015.004.012-.004.104-.074.012-.016.004-.017-.017-.427c-.002-.01-.009-.017-.017-.018Zm.265-.113-.013.002-.185.093-.01.01-.003.011.018.43.005.012.008.007.201.093c.012.004.023 0 .029-.008l.004-.014-.034-.614c-.003-.012-.01-.02-.02-.022Zm-.715.002a.023.023 0 0 0-.027.006l-.006.014-.034.614c0 .012.007.02.017.024l.015-.002.201-.093.01-.008.004-.011.017-.43-.003-.012-.01-.01-.184-.092Z"/><path fill="#09244B" d="M13.176 3.434a1 1 0 1 1 1.648 1.133l-1.61 2.342L21.526 19H22a1 1 0 1 1 0 2h-4.634l-.044-.07-4.492-6.487a1.01 1.01 0 0 0-1.66 0L6.678 20.93l-.044.07H2a1 1 0 0 1 0-2h.474l8.313-12.092-1.611-2.342a1 1 0 0 1 1.648-1.133L12 5.144ZM12 16.757 14.938 21H9.062L12 16.757Z"/></g></svg>
